svgs/thin/bucket.svg

<svg xmlns="http://www.w3.org/2000/svg" viewBox="0 0 448 512"><!--! Font Awesome Pro 6.1.1 by @fontawesome - https://fontawesome.com License - https://fontawesome.com/license (Commercial License) Copyright 2022 Fonticons, Inc. --><path d="M80 160C80 164.4 76.42 168 72 168C67.58 168 64 164.4 64 160V136C64 60.89 124.9 0 200 0H248C323.1 0 384 60.89 384 136V152C384 156.4 380.4 160 376 160C371.6 160 368 156.4 368 152V136C368 69.73 314.3 16 248 16H200C133.7 16 80 69.73 80 136V160zM.0003 200C.0003 195.6 3.582 192 8 192H440C444.4 192 448 195.6 448 200C448 204.4 444.4 208 440 208H422L389.3 469.1C386.3 493.1 365.8 512 341.6 512H106.4C82.17 512 61.75 493.1 58.74 469.1L26 208H8C3.582 208 0 204.4 0 200H.0003zM74.62 467.1C76.62 483.1 90.24 496 106.4 496H341.6C357.8 496 371.4 483.1 373.4 467.1L405.9 208H42.12L74.62 467.1z"/></svg>

<svg xmlns="http://www.w3.org/2000/svg" viewBox="0 0 448 512"><!--! Font Awesome Pro 6.5.1 by @fontawesome - https://fontawesome.com License - https://fontawesome.com/license (Commercial License) Copyright 2023 Fonticons, Inc. --><path d="M80 136v24c0 4.4-3.6 8-8 8s-8-3.6-8-8V136C64 60.9 124.9 0 200 0h48c75.1 0 136 60.9 136 136v16c0 4.4-3.6 8-8 8s-8-3.6-8-8V136c0-66.3-53.7-120-120-120H200C133.7 16 80 69.7 80 136zM0 200c0-4.4 3.6-8 8-8H24 40.1 407.9 424h16c4.4 0 8 3.6 8 8s-3.6 8-8 8H422L389.3 470c-3 24-23.4 42-47.6 42H106.4c-24.2 0-44.6-18-47.6-42L26 208H8c-4.4 0-8-3.6-8-8zm42.1 8L74.6 468c2 16 15.6 28 31.8 28H341.6c16.1 0 29.8-12 31.8-28l32.5-260H42.1z"/></svg>
